X:490
M:4/4
L:1/8
K:G
EAAB {d}-c2 BA|GBdc BGGD|EAAB cdef|{a}-gedB eAAg:||!
ea{b}-ag edBd|g2 bg edBd|(3ggg bg efge|dBgB {c}-BAAg|!
ea{b}-ag edBd|(3ggg bg edBd|fabf efge|dBgB {d}-cBAG:||

